images/tranquility.svg

<svg xmlns="http://www.w3.org/2000/svg" width="40" height="40" viewBox="0 0 725 725"><path fill-rule="evenodd" fill="#DDD" d="m145.87 236.632 251.085-133.054 34.337 315.862L156.6 522.53l-10.73-285.898Z"/><path fill-rule="evenodd" fill="#9F9F9F" d="m396.955 103.578 167.39 130.908 47.213 278.983-180.266-94.029-34.337-315.862Z"/><path fill-rule="evenodd" d="m431.292 419.44 180.266 94.029-253.231 81.711L156.6 522.53l274.692-103.09Z"/></svg>

<svg xmlns="http://www.w3.org/2000/svg" xmlns:xlink="http://www.w3.org/1999/xlink" width="40" height="40" viewBox="0 0 725 725">
  <path fill-rule="evenodd" fill="rgb(221, 221, 221)"
    d="M145.870,236.632 L396.955,103.578 L431.292,419.44 L156.600,522.53 L145.870,236.632 Z" />
  <path fill-rule="evenodd" fill="rgb(159, 159, 159)"
    d="M396.955,103.578 L564.345,234.486 L611.558,513.469 L431.292,419.44 L396.955,103.578 Z" />
  <path fill-rule="evenodd" fill="rgb(0, 0, 0)"
    d="M431.292,419.44 L611.558,513.469 L358.327,595.18 L156.600,522.53 L431.292,419.44 Z" />
</svg>
